build/system/QRCodeSolid.svg

<svg xmlns="http://www.w3.org/2000/svg" fill="none" viewBox="0 0 24 24" focusable="false"><path d="M0 0H24V24H0z"/><path fill="#74767B" fill-rule="evenodd" d="M5.05029 1.99988L19.0503 1.99988C20.7071 1.99988 22.0503 3.34302 22.0503 4.99988L22.0503 18.9999C22.0503 20.6567 20.7071 21.9999 19.0503 21.9999L5.05029 21.9999C3.39344 21.9999 2.05029 20.6567 2.05029 18.9999L2.05029 4.99988C2.05029 3.34302 3.39344 1.99988 5.05029 1.99988ZM7.23311 5.92436C6.51514 5.92436 5.93311 6.50639 5.93311 7.22436L5.93311 9.94057C5.93311 10.6585 6.51513 11.2406 7.2331 11.2406L9.94931 11.2406C10.6673 11.2406 11.2493 10.6585 11.2493 9.94057L11.2493 7.22436C11.2493 6.50639 10.6673 5.92436 9.94931 5.92436L7.23311 5.92436ZM14.0681 5.92436C13.3501 5.92436 12.7681 6.50639 12.7681 7.22436L12.7681 9.94057C12.7681 10.6585 13.3501 11.2406 14.0681 11.2406L16.7843 11.2406C17.5022 11.2406 18.0843 10.6585 18.0843 9.94057L18.0843 7.22436C18.0843 6.50639 17.5022 5.92436 16.7843 5.92436L14.0681 5.92436ZM9.94931 7.22436L7.23311 7.22436L7.2331 9.94057L9.94931 9.94057L9.94931 7.22436ZM14.0681 7.22436L16.7843 7.22436L16.7843 9.94057L14.0681 9.94057L14.0681 7.22436ZM13.4179 12.7169C13.7769 12.7169 14.0679 13.0079 14.0679 13.3669L14.0679 14.3459C14.0679 14.7049 13.7769 14.9959 13.4179 14.9959C13.0589 14.9959 12.7679 14.7049 12.7679 14.3459L12.7679 13.3669C12.7679 13.0079 13.0589 12.7169 13.4179 12.7169ZM7.23311 12.7595C6.51514 12.7595 5.93311 13.3415 5.93311 14.0595L5.93311 16.7757C5.93311 17.4937 6.51513 18.0757 7.2331 18.0757L9.94931 18.0757C10.6673 18.0757 11.2493 17.4937 11.2493 16.7757L11.2493 14.0595C11.2493 13.3415 10.6673 12.7595 9.94931 12.7595L7.23311 12.7595ZM16.7845 18.2789L14.5852 18.2789C14.2262 18.2789 13.9352 17.9879 13.9352 17.6289C13.9352 17.2699 14.2262 16.9789 14.5852 16.9789L16.7845 16.9789L16.7845 14.6064C16.7845 14.2474 17.0755 13.9564 17.4345 13.9564C17.7935 13.9564 18.0845 14.2474 18.0845 14.6064L18.0845 16.9789C18.0845 17.6969 17.5024 18.2789 16.7845 18.2789ZM9.94931 14.0595L7.23311 14.0595L7.2331 16.7757L9.94931 16.7757L9.94931 14.0595Z"/></svg>

<svg xmlns="http://www.w3.org/2000/svg" fill="none" viewBox="0 0 24 24" focusable="false"><path fill="#74767B" fill-rule="evenodd" d="M5.05 1.99h14c1.65 0 3 1.35 3 3v14c0 1.66-1.35 3-3 3h-14c-1.66 0-3-1.34-3-3v-14c0-1.65 1.34-3 3-3m2.18 3.93c-.72 0-1.3.58-1.3 1.3v2.72c0 .71.58 1.3 1.3 1.3h2.71c.72 0 1.3-.59 1.3-1.3V7.22c0-.72-.58-1.3-1.3-1.3zm6.83 0c-.71 0-1.3.58-1.3 1.3v2.72c0 .71.59 1.3 1.3 1.3h2.72c.72 0 1.3-.59 1.3-1.3V7.22c0-.72-.58-1.3-1.3-1.3zm-4.12 1.3H7.23v2.72h2.71zm4.12 0h2.72v2.72h-2.72zm-.65 5.49c.36 0 .65.29.65.65v.98c0 .36-.29.65-.65.65s-.65-.29-.65-.65v-.98c0-.36.29-.65.65-.65m-6.18.04c-.72 0-1.3.59-1.3 1.3v2.72c0 .72.58 1.3 1.3 1.3h2.71c.72 0 1.3-.58 1.3-1.3v-2.72c0-.71-.58-1.3-1.3-1.3zm9.55 5.52h-2.2c-.36 0-.65-.29-.65-.65 0-.35.29-.65.65-.65h2.2V14.6c0-.36.29-.65.65-.65s.65.29.65.65v2.37c0 .72-.58 1.3-1.3 1.3m-6.84-4.22H7.23v2.72h2.71z"/></svg>
